; generated by Slic3r 0.7.1 on 2013-02-26 at 20:49:35

; layer_height = 0.4
; perimeters = 3
; solid_layers = 3
; fill_density = 0.4
; nozzle_diameter = 0.5
; filament_diameter = 3
; extrusion_multiplier = 1
; perimeter_speed = 30
; infill_speed = 60
; travel_speed = 130
; extrusion_width_ratio = 0
; scale = 1
; single wall width = 0.53mm

M104 S200 ; set temperature
G28 ; home all axes
M109 S200 ; wait for temperature to be reached
G90 ; use absolute coordinates
G21 ; set units to millimeters
G92 E0 ; reset extrusion distance
M82 ; use absolute distances for extrusion
G1 Z0.400 F7800.000
G1 X83.930 Y84.110
G1 F1800.000 E1.00000
G1 X84.110 Y83.930 F540.000 E1.00749
G1 X84.490 Y83.590 E1.02248
G1 X85.110 Y83.150 E1.04483
G1 X85.330 Y83.020 E1.05235
G1 X85.790 Y82.790 E1.06747
G1 X86.260 Y82.600 E1.08238
G1 X86.750 Y82.450 E1.09745
G1 X87.000 Y82.390 E1.10501
G1 X87.750 Y82.280 E1.12730
G1 X88.260 Y82.260 E1.14231
G1 X112.240 Y82.280 E1.84745
G1 X112.990 Y82.390 E1.86974
G1 X113.490 Y82.520 E1.88493
G1 X113.970 Y82.690 E1.89990
G1 X114.430 Y82.900 E1.91477
G1 X114.660 Y83.020 E1.92240
G1 X114.880 Y83.150 E1.92991
G1 X115.500 Y83.590 E1.95227
G1 X115.880 Y83.930 E1.96726
G1 X116.060 Y84.110 E1.97475
G1 X116.400 Y84.490 E1.98974
G1 X116.840 Y85.110 E2.01210
G1 X116.970 Y85.330 E2.01961
G1 X117.200 Y85.790 E2.03473
G1 X117.390 Y86.260 E2.04964
G1 X117.540 Y86.750 E2.06471
G1 X117.600 Y87.000 E2.07227
G1 X117.710 Y87.750 E2.09456
G1 X117.710 Y112.240 E2.81470
G1 X117.600 Y112.990 E2.83699
G1 X117.470 Y113.490 E2.85218
G1 X117.300 Y113.970 E2.86715
G1 X117.090 Y114.430 E2.88202
G1 X116.970 Y114.660 E2.88965
G1 X116.840 Y114.880 E2.89716
G1 X116.400 Y115.500 E2.91952
G1 X116.060 Y115.880 E2.93451
G1 X115.880 Y116.060 E2.94200
G1 X115.500 Y116.400 E2.95699
G1 X114.880 Y116.840 E2.97935
G1 X114.660 Y116.970 E2.98686
G1 X114.200 Y117.200 E3.00199
G1 X113.730 Y117.390 E3.01689
G1 X113.240 Y117.540 E3.03196
G1 X112.990 Y117.600 E3.03952
G1 X112.240 Y117.710 E3.06181
G1 X111.730 Y117.730 E3.07682
G1 X87.750 Y117.710 E3.78196
G1 X87.000 Y117.600 E3.80425
G1 X86.500 Y117.470 E3.81944
G1 X86.020 Y117.300 E3.83441
G1 X85.560 Y117.090 E3.84928
G1 X85.330 Y116.970 E3.85691
G1 X85.110 Y116.840 E3.86443
G1 X84.490 Y116.400 E3.88678
G1 X84.110 Y116.060 E3.90178
G1 X83.930 Y115.880 E3.90926
G1 X83.590 Y115.500 E3.92426
G1 X83.150 Y114.880 E3.94661
G1 X83.020 Y114.660 E3.95413
G1 X82.790 Y114.200 E3.96925
G1 X82.600 Y113.730 E3.98416
G1 X82.450 Y113.240 E3.99922
G1 X82.390 Y112.990 E4.00678
G1 X82.280 Y112.240 E4.02907
G1 X82.280 Y87.750 E4.74921
G1 X82.390 Y87.000 E4.77150
G1 X82.520 Y86.500 E4.78669
G1 X82.690 Y86.020 E4.80167
G1 X82.900 Y85.560 E4.81653
G1 X83.020 Y85.330 E4.82416
G1 X83.150 Y85.110 E4.83168
G1 X83.590 Y84.490 E4.85403
G1 X83.877 Y84.169 E4.86671
G1 F1800.000 E3.86671
G92 E0
G1 X89.293 Y89.293 F7800.000
G1 F1800.000 E1.00000
G1 X110.707 Y89.293 F540.000 E1.62969
G1 X110.707 Y110.707 E2.25939
G1 X89.293 Y110.707 E2.88908
G1 X89.293 Y89.372 E3.51646
G1 X88.778 Y88.778 F7800.000
G1 X111.222 Y88.778 F540.000 E4.17645
G1 X111.222 Y111.222 E4.83644
G1 X88.778 Y111.222 E5.49643
G1 X88.778 Y88.856 E6.15411
G1 X88.263 Y88.263 F7800.000
G1 X111.738 Y88.263 F540.000 E6.84440
G1 X111.738 Y111.738 E7.53469
G1 X88.263 Y111.738 E8.22498
G1 X88.263 Y88.341 E8.91295
G1 F1800.000 E7.91295
G92 E0
G1 X90.286 Y110.340 F7800.000
G1 F1800.000 E1.00000
G1 X89.660 Y109.714 F1080.000 E1.02608
G1 X89.660 Y108.985 E1.04756
G1 X91.015 Y110.340 E1.10401
G1 X91.744 Y110.340 E1.12548
G1 X89.660 Y108.256 E1.21231
G1 X89.660 Y107.526 E1.23378
G1 X92.474 Y110.340 E1.35097
G1 X93.203 Y110.340 E1.37245
G1 X89.660 Y106.797 E1.52001
G1 X89.660 Y106.068 E1.54149
G1 X93.932 Y110.340 E1.71942
G1 X94.661 Y110.340 E1.74090
G1 X89.660 Y105.339 E1.94921
G1 X89.660 Y104.609 E1.97068
G1 X95.391 Y110.340 E2.20936
G1 X96.120 Y110.340 E2.23083
G1 X89.660 Y103.880 E2.49988
G1 X89.660 Y103.151 E2.52136
G1 X96.849 Y110.340 E2.82078
G1 X97.578 Y110.340 E2.84225
G1 X89.660 Y102.422 E3.17204
G1 X89.660 Y101.692 E3.19352
G1 X98.308 Y110.340 E3.55368
G1 X99.037 Y110.340 E3.57515
G1 X89.660 Y100.963 E3.96568
G1 X89.660 Y100.234 E3.98716
G1 X99.766 Y110.340 E4.40806
G1 X100.495 Y110.340 E4.42954
G1 X89.660 Y99.505 E4.88081
G1 X89.660 Y98.775 E4.90229
G1 X101.225 Y110.340 E5.38393
G1 X101.954 Y110.340 E5.40541
G1 X89.660 Y98.046 E5.91742
G1 X89.660 Y97.317 E5.93890
G1 X102.683 Y110.340 E6.48128
G1 X103.412 Y110.340 E6.50276
G1 X89.660 Y96.588 E7.07551
G1 X89.660 Y95.858 E7.09699
G1 X104.142 Y110.340 E7.70012
G1 X104.871 Y110.340 E7.72159
G1 X89.660 Y95.129 E8.35509
G1 X89.660 Y94.400 E8.37657
G1 X105.600 Y110.340 E9.04044
G1 X106.330 Y110.340 E9.06191
G1 X89.660 Y93.670 E9.75615
G1 X89.660 Y92.941 E9.77763
G1 X107.059 Y110.340 E10.50224
G1 X107.788 Y110.340 E10.52371
G1 X89.660 Y92.212 E11.27870
G1 X89.660 Y91.483 E11.30017
G1 X108.517 Y110.340 E12.08553
G1 X109.247 Y110.340 E12.10700
G1 X89.660 Y90.753 E12.92273
G1 X89.660 Y90.024 E12.94420
G1 X109.976 Y110.340 E13.79030
G1 X110.340 Y109.976 E13.80548
G1 X90.024 Y89.660 E14.65158
G1 X90.753 Y89.660 E14.67305
G1 X110.340 Y109.247 E15.48878
G1 X110.340 Y108.517 E15.51025
G1 X91.483 Y89.660 E16.29560
G1 X92.212 Y89.660 E16.31708
G1 X110.340 Y107.788 E17.07206
G1 X110.340 Y107.059 E17.09354
G1 X92.941 Y89.660 E17.81815
G1 X93.670 Y89.660 E17.83962
G1 X110.340 Y106.330 E18.53386
G1 X110.340 Y105.600 E18.55534
G1 X94.400 Y89.660 E19.21921
G1 X95.129 Y89.660 E19.24069
G1 X110.340 Y104.871 E19.87418
G1 X110.340 Y104.142 E19.89566
G1 X95.858 Y89.660 E20.49879
G1 X96.588 Y89.660 E20.52026
G1 X110.340 Y103.412 E21.09302
G1 X110.340 Y102.683 E21.11449
G1 X97.317 Y89.660 E21.65688
G1 X98.046 Y89.660 E21.67836
G1 X110.340 Y101.954 E22.19037
G1 X110.340 Y101.225 E22.21185
G1 X98.775 Y89.660 E22.69349
G1 X99.505 Y89.660 E22.71497
G1 X110.340 Y100.495 E23.16624
G1 X110.340 Y99.766 E23.18772
G1 X100.234 Y89.660 E23.60862
G1 X100.963 Y89.660 E23.63009
G1 X110.340 Y99.037 E24.02062
G1 X110.340 Y98.308 E24.04210
G1 X101.692 Y89.660 E24.40226
G1 X102.422 Y89.660 E24.42374
G1 X110.340 Y97.578 E24.75353
G1 X110.340 Y96.849 E24.77500
G1 X103.151 Y89.660 E25.07442
G1 X103.880 Y89.660 E25.09590
G1 X110.340 Y96.120 E25.36494
G1 X110.340 Y95.391 E25.38642
G1 X104.609 Y89.660 E25.62510
G1 X105.339 Y89.660 E25.64657
G1 X110.340 Y94.661 E25.85488
G1 X110.340 Y93.932 E25.87635
G1 X106.068 Y89.660 E26.05429
G1 X106.797 Y89.660 E26.07576
G1 X110.340 Y93.203 E26.22333
G1 X110.340 Y92.474 E26.24480
G1 X107.526 Y89.660 E26.36200
G1 X108.256 Y89.660 E26.38347
G1 X110.340 Y91.744 E26.47029
G1 X110.340 Y91.015 E26.49177
G1 X108.985 Y89.660 E26.54822
G1 X109.714 Y89.660 E26.56970
G1 X110.340 Y90.286 E26.59578
G1 F1800.000 E25.59578
G92 E0
G1 Z0.800 F7800.000
G1 X110.707 Y89.293
G1 F1800.000 E1.00000
G1 X110.707 Y110.707 F1800.000 E1.62969
G1 X89.293 Y110.707 E2.25939
G1 X89.293 Y89.293 E2.88908
G1 X110.628 Y89.293 E3.51646
G1 X111.222 Y88.778 F7800.000
G1 X111.222 Y111.222 F1800.000 E4.17645
G1 X88.778 Y111.222 E4.83644
G1 X88.778 Y88.778 E5.49643
G1 X111.144 Y88.778 E6.15411
G1 X111.738 Y88.263 F7800.000
G1 X111.738 Y111.738 F1800.000 E6.84440
G1 X88.263 Y111.738 E7.53469
G1 X88.263 Y88.263 E8.22498
G1 X111.659 Y88.263 E8.91295
G1 F1800.000 E7.91295
G92 E0
G1 X90.286 Y89.660 F7800.000
G1 F1800.000 E1.00000
G1 X89.660 Y90.286 F3600.000 E1.02608
G1 X89.660 Y91.015 E1.04756
G1 X91.015 Y89.660 E1.10401
G1 X91.744 Y89.660 E1.12548
G1 X89.660 Y91.744 E1.21231
G1 X89.660 Y92.474 E1.23378
G1 X92.474 Y89.660 E1.35097
G1 X93.203 Y89.660 E1.37245
G1 X89.660 Y93.203 E1.52001
G1 X89.660 Y93.932 E1.54149
G1 X93.932 Y89.660 E1.71943
G1 X94.661 Y89.660 E1.74090
G1 X89.660 Y94.661 E1.94921
G1 X89.660 Y95.391 E1.97068
G1 X95.391 Y89.660 E2.20936
G1 X96.120 Y89.660 E2.23083
G1 X89.660 Y96.120 E2.49988
G1 X89.660 Y96.849 E2.52136
G1 X96.849 Y89.660 E2.82078
G1 X97.578 Y89.660 E2.84225
G1 X89.660 Y97.578 E3.17204
G1 X89.660 Y98.308 E3.19352
G1 X98.308 Y89.660 E3.55368
G1 X99.037 Y89.660 E3.57515
G1 X89.660 Y99.037 E3.96568
G1 X89.660 Y99.766 E3.98716
G1 X99.766 Y89.660 E4.40806
G1 X100.495 Y89.660 E4.42954
G1 X89.660 Y100.495 E4.88081
G1 X89.660 Y101.225 E4.90229
G1 X101.225 Y89.660 E5.38393
G1 X101.954 Y89.660 E5.40541
G1 X89.660 Y101.954 E5.91742
G1 X89.660 Y102.683 E5.93890
G1 X102.683 Y89.660 E6.48128
G1 X103.412 Y89.660 E6.50276
G1 X89.660 Y103.412 E7.07552
G1 X89.660 Y104.142 E7.09699
G1 X104.142 Y89.660 E7.70012
G1 X104.871 Y89.660 E7.72159
G1 X89.660 Y104.871 E8.35509
G1 X89.660 Y105.600 E8.37657
G1 X105.600 Y89.660 E9.04044
G1 X106.330 Y89.660 E9.06191
G1 X89.660 Y106.330 E9.75615
G1 X89.660 Y107.059 E9.77763
G1 X107.059 Y89.660 E10.50224
G1 X107.788 Y89.660 E10.52372
G1 X89.660 Y107.788 E11.27870
G1 X89.660 Y108.517 E11.30017
G1 X108.517 Y89.660 E12.08553
G1 X109.247 Y89.660 E12.10700
G1 X89.660 Y109.247 E12.92273
G1 X89.660 Y109.976 E12.94420
G1 X109.976 Y89.660 E13.79030
G1 X110.340 Y90.024 E13.80548
G1 X90.024 Y110.340 E14.65158
G1 X90.753 Y110.340 E14.67305
G1 X110.340 Y90.753 E15.48878
G1 X110.340 Y91.483 E15.51025
G1 X91.483 Y110.340 E16.29560
G1 X92.212 Y110.340 E16.31708
G1 X110.340 Y92.212 E17.07206
G1 X110.340 Y92.941 E17.09354
G1 X92.941 Y110.340 E17.81815
G1 X93.670 Y110.340 E17.83962
G1 X110.340 Y93.670 E18.53387
G1 X110.340 Y94.400 E18.55534
G1 X94.400 Y110.340 E19.21921
G1 X95.129 Y110.340 E19.24069
G1 X110.340 Y95.129 E19.87418
G1 X110.340 Y95.858 E19.89566
G1 X95.858 Y110.340 E20.49879
G1 X96.588 Y110.340 E20.52026
G1 X110.340 Y96.588 E21.09302
G1 X110.340 Y97.317 E21.11450
G1 X97.317 Y110.340 E21.65688
G1 X98.046 Y110.340 E21.67836
G1 X110.340 Y98.046 E22.19037
G1 X110.340 Y98.775 E22.21185
G1 X98.775 Y110.340 E22.69349
G1 X99.505 Y110.340 E22.71497
G1 X110.340 Y99.505 E23.16624
G1 X110.340 Y100.234 E23.18772
G1 X100.234 Y110.340 E23.60862
G1 X100.963 Y110.340 E23.63009
G1 X110.340 Y100.963 E24.02062
G1 X110.340 Y101.692 E24.04210
G1 X101.692 Y110.340 E24.40226
G1 X102.422 Y110.340 E24.42374
G1 X110.340 Y102.422 E24.75353
G1 X110.340 Y103.151 E24.77500
G1 X103.151 Y110.340 E25.07442
G1 X103.880 Y110.340 E25.09590
G1 X110.340 Y103.880 E25.36494
G1 X110.340 Y104.609 E25.38642
G1 X104.609 Y110.340 E25.62510
G1 X105.339 Y110.340 E25.64657
G1 X110.340 Y105.339 E25.85488
G1 X110.340 Y106.068 E25.87635
G1 X106.068 Y110.340 E26.05429
G1 X106.797 Y110.340 E26.07576
G1 X110.340 Y106.797 E26.22333
G1 X110.340 Y107.526 E26.24480
G1 X107.526 Y110.340 E26.36200
G1 X108.256 Y110.340 E26.38347
G1 X110.340 Y108.256 E26.47029
G1 X110.340 Y108.985 E26.49177
G1 X108.985 Y110.340 E26.54822
G1 X109.714 Y110.340 E26.56970
G1 X110.340 Y109.714 E26.59578
G1 F1800.000 E25.59578
G92 E0
G1 Z1.200 F7800.000
G1 X110.707 Y110.707
G1 F1800.000 E1.00000
G1 X89.293 Y110.707 F1800.000 E1.62969
G1 X89.293 Y89.293 E2.25939
G1 X110.707 Y89.293 E2.88908
G1 X110.707 Y110.628 E3.51646
G1 X111.222 Y111.222 F7800.000
G1 X88.778 Y111.222 F1800.000 E4.17645
G1 X88.778 Y88.778 E4.83644
G1 X111.222 Y88.778 E5.49643
G1 X111.222 Y111.144 E6.15411
G1 X111.738 Y111.738 F7800.000
G1 X88.263 Y111.738 F1800.000 E6.84440
G1 X88.263 Y88.263 E7.53469
G1 X111.738 Y88.263 E8.22498
G1 X111.738 Y111.659 E8.91295
G1 F1800.000 E7.91295
G92 E0
G1 X110.340 Y90.286 F7800.000
G1 F1800.000 E1.00000
G1 X109.714 Y89.660 F3600.000 E1.02608
G1 X108.985 Y89.660 E1.04756
G1 X110.340 Y91.015 E1.10401
G1 X110.340 Y91.744 E1.12548
G1 X108.256 Y89.660 E1.21231
G1 X107.526 Y89.660 E1.23378
G1 X110.340 Y92.474 E1.35097
G1 X110.340 Y93.203 E1.37245
G1 X106.797 Y89.660 E1.52001
G1 X106.068 Y89.660 E1.54149
G1 X110.340 Y93.932 E1.71943
G1 X110.340 Y94.661 E1.74090
G1 X105.339 Y89.660 E1.94921
G1 X104.609 Y89.660 E1.97068
G1 X110.340 Y95.391 E2.20936
G1 X110.340 Y96.120 E2.23083
G1 X103.880 Y89.660 E2.49988
G1 X103.151 Y89.660 E2.52136
G1 X110.340 Y96.849 E2.82078
G1 X110.340 Y97.578 E2.84225
G1 X102.422 Y89.660 E3.17204
G1 X101.692 Y89.660 E3.19352
G1 X110.340 Y98.308 E3.55368
G1 X110.340 Y99.037 E3.57515
G1 X100.963 Y89.660 E3.96568
G1 X100.234 Y89.660 E3.98716
G1 X110.340 Y99.766 E4.40806
G1 X110.340 Y100.495 E4.42954
G1 X99.505 Y89.660 E4.88081
G1 X98.775 Y89.660 E4.90229
G1 X110.340 Y101.225 E5.38393
G1 X110.340 Y101.954 E5.40541
G1 X98.046 Y89.660 E5.91742
G1 X97.317 Y89.660 E5.93890
G1 X110.340 Y102.683 E6.48128
G1 X110.340 Y103.412 E6.50276
G1 X96.588 Y89.660 E7.07552
G1 X95.858 Y89.660 E7.09699
G1 X110.340 Y104.142 E7.70012
G1 X110.340 Y104.871 E7.72159
G1 X95.129 Y89.660 E8.35509
G1 X94.400 Y89.660 E8.37657
G1 X110.340 Y105.600 E9.04044
G1 X110.340 Y106.330 E9.06191
G1 X93.670 Y89.660 E9.75615
G1 X92.941 Y89.660 E9.77763
G1 X110.340 Y107.059 E10.50224
G1 X110.340 Y107.788 E10.52372
G1 X92.212 Y89.660 E11.27870
G1 X91.483 Y89.660 E11.30017
G1 X110.340 Y108.517 E12.08553
G1 X110.340 Y109.247 E12.10700
G1 X90.753 Y89.660 E12.92273
G1 X90.024 Y89.660 E12.94420
G1 X110.340 Y109.976 E13.79030
G1 X109.976 Y110.340 E13.80548
G1 X89.660 Y90.024 E14.65158
G1 X89.660 Y90.753 E14.67305
G1 X109.247 Y110.340 E15.48878
G1 X108.517 Y110.340 E15.51025
G1 X89.660 Y91.483 E16.29561
G1 X89.660 Y92.212 E16.31708
G1 X107.788 Y110.340 E17.07206
G1 X107.059 Y110.340 E17.09354
G1 X89.660 Y92.941 E17.81815
G1 X89.660 Y93.670 E17.83963
G1 X106.330 Y110.340 E18.53387
G1 X105.600 Y110.340 E18.55534
G1 X89.660 Y94.400 E19.21921
G1 X89.660 Y95.129 E19.24069
G1 X104.871 Y110.340 E19.87418
G1 X104.142 Y110.340 E19.89566
G1 X89.660 Y95.858 E20.49879
G1 X89.660 Y96.588 E20.52026
G1 X103.412 Y110.340 E21.09302
G1 X102.683 Y110.340 E21.11450
G1 X89.660 Y97.317 E21.65688
G1 X89.660 Y98.046 E21.67836
G1 X101.954 Y110.340 E22.19037
G1 X101.225 Y110.340 E22.21185
G1 X89.660 Y98.775 E22.69349
G1 X89.660 Y99.505 E22.71497
G1 X100.495 Y110.340 E23.16624
G1 X99.766 Y110.340 E23.18772
G1 X89.660 Y100.234 E23.60862
G1 X89.660 Y100.963 E23.63009
G1 X99.037 Y110.340 E24.02063
G1 X98.308 Y110.340 E24.04210
G1 X89.660 Y101.692 E24.40226
G1 X89.660 Y102.422 E24.42374
G1 X97.578 Y110.340 E24.75353
G1 X96.849 Y110.340 E24.77500
G1 X89.660 Y103.151 E25.07442
G1 X89.660 Y103.880 E25.09590
G1 X96.120 Y110.340 E25.36494
G1 X95.391 Y110.340 E25.38642
G1 X89.660 Y104.609 E25.62510
G1 X89.660 Y105.339 E25.64657
G1 X94.661 Y110.340 E25.85488
G1 X93.932 Y110.340 E25.87635
G1 X89.660 Y106.068 E26.05429
G1 X89.660 Y106.797 E26.07576
G1 X93.203 Y110.340 E26.22333
G1 X92.474 Y110.340 E26.24480
G1 X89.660 Y107.526 E26.36200
G1 X89.660 Y108.256 E26.38347
G1 X91.744 Y110.340 E26.47029
G1 X91.015 Y110.340 E26.49177
G1 X89.660 Y108.985 E26.54822
G1 X89.660 Y109.714 E26.56970
G1 X90.286 Y110.340 E26.59578
G1 F1800.000 E25.59578
G92 E0
G1 Z1.600 F7800.000
G1 X89.293 Y110.707
G1 F1800.000 E1.00000
G1 X89.293 Y89.293 F1800.000 E1.62969
G1 X110.707 Y89.293 E2.25939
G1 X110.707 Y110.707 E2.88908
G1 X89.372 Y110.707 E3.51646
G1 X88.778 Y111.222 F7800.000
G1 X88.778 Y88.778 F1800.000 E4.17645
G1 X111.222 Y88.778 E4.83644
G1 X111.222 Y111.222 E5.49643
G1 X88.856 Y111.222 E6.15411
G1 X88.263 Y111.738 F7800.000
G1 X88.263 Y88.263 F1800.000 E6.84440
G1 X111.738 Y88.263 E7.53469
G1 X111.738 Y111.738 E8.22498
G1 X88.341 Y111.738 E8.91295
G1 F1800.000 E7.91295
G92 E0
G1 X110.340 Y108.622 F7800.000
G1 F1800.000 E1.00000
G1 X108.622 Y110.340 F3600.000 E1.07146
G1 X106.801 Y110.340 E1.12502
G1 X110.340 Y106.801 E1.27223
G1 X110.340 Y104.979 E1.32579
G1 X104.979 Y110.340 E1.54874
G1 X103.158 Y110.340 E1.60230
G1 X110.340 Y103.158 E1.90100
G1 X110.340 Y101.336 E1.95456
G1 X101.336 Y110.340 E2.32900
G1 X99.515 Y110.340 E2.38256
G1 X110.340 Y99.515 E2.83275
G1 X110.340 Y97.693 E2.88631
G1 X97.693 Y110.340 E3.41225
G1 X95.872 Y110.340 E3.46581
G1 X110.340 Y95.872 E4.06749
G1 X110.340 Y94.050 E4.12105
G1 X94.050 Y110.340 E4.79848
G1 X92.229 Y110.340 E4.85204
G1 X110.340 Y92.229 E5.60521
G1 X110.340 Y90.408 E5.65877
G1 X90.408 Y110.340 E6.48768
G1 X89.660 Y109.267 E6.52616
G1 X109.267 Y89.660 E7.34154
G1 X107.446 Y89.660 E7.39510
G1 X89.660 Y107.446 E8.13475
G1 X89.660 Y105.624 E8.18831
G1 X105.624 Y89.660 E8.85220
G1 X103.803 Y89.660 E8.90576
G1 X89.660 Y103.803 E9.49391
G1 X89.660 Y101.981 E9.54747
