; generated by Slic3r 0.9.8 on 2013-03-02 at 10:56:31

; layer_height = 0.25
; perimeters = 3
; top_solid_layers = 3
; bottom_solid_layers = 3
; fill_density = 0.4
; perimeter_speed = 30
; infill_speed = 60
; travel_speed = 130
; scale = 1
; nozzle_diameter = 0.35
; filament_diameter = 3
; extrusion_multiplier = 1
; perimeters extrusion width = 0.39mm
; infill extrusion width = 0.39mm
; first layer extrusion width = 0.70mm

;M107
;M190 S65 ; wait for bed temperature to be reached
;M104 S205 ; set temperature
G28 ; home all axes
;M109 S205 ; wait for temperature to be reached
G90 ; use absolute coordinates
G21 ; set units to millimeters
G92 E0
M82 ; use absolute distances for extrusion
G1 F1800.000 E-1.00000
G92 E0
G1 Z0.350 F7800.000
G1 X111.420 Y111.230
G1 F1800.000 E1.00000
G1 X111.030 Y111.600 F540.000 E1.01663
G1 X110.620 Y111.940 E1.03311
G1 X109.950 Y112.380 E1.05792
G1 X109.480 Y112.630 E1.07439
G1 X108.740 Y112.920 E1.09898
G1 X108.230 Y113.070 E1.11543
G1 X107.440 Y113.220 E1.14031
G1 X106.910 Y113.260 E1.15675
G1 X83.080 Y113.260 E1.89409
G1 X82.550 Y113.220 E1.91053
G1 X81.760 Y113.070 E1.93541
G1 X81.250 Y112.920 E1.95186
G1 X80.510 Y112.630 E1.97645
G1 X80.040 Y112.380 E1.99292
G1 X79.370 Y111.940 E2.01772
G1 X78.760 Y111.420 E2.04253
G1 X78.390 Y111.030 E2.05916
G1 X78.050 Y110.620 E2.07564
G1 X77.610 Y109.950 E2.10044
G1 X77.360 Y109.480 E2.11691
G1 X77.070 Y108.740 E2.14151
G1 X76.920 Y108.230 E2.15795
G1 X76.770 Y107.440 E2.18283
G1 X76.730 Y106.910 E2.19928
G1 X76.730 Y83.080 E2.93661
G1 X76.770 Y82.550 E2.95306
G1 X76.920 Y81.760 E2.97794
G1 X77.070 Y81.250 E2.99439
G1 X77.360 Y80.510 E3.01898
G1 X77.610 Y80.040 E3.03545
G1 X78.050 Y79.370 E3.06025
G1 X78.570 Y78.760 E3.08505
G1 X78.960 Y78.390 E3.10169
G1 X79.370 Y78.050 E3.11817
G1 X80.040 Y77.610 E3.14297
G1 X80.510 Y77.360 E3.15944
G1 X81.250 Y77.070 E3.18403
G1 X81.760 Y76.920 E3.20048
G1 X82.550 Y76.770 E3.22536
G1 X83.080 Y76.730 E3.24181
G1 X106.910 Y76.730 E3.97914
G1 X107.440 Y76.770 E3.99558
G1 X108.230 Y76.920 E4.02046
G1 X108.740 Y77.070 E4.03691
G1 X109.480 Y77.360 E4.06150
G1 X109.950 Y77.610 E4.07797
G1 X110.620 Y78.050 E4.10278
G1 X111.230 Y78.570 E4.12758
G1 X111.600 Y78.960 E4.14421
G1 X111.940 Y79.370 E4.16069
G1 X112.380 Y80.040 E4.18549
G1 X112.630 Y80.510 E4.20196
G1 X112.920 Y81.250 E4.22656
G1 X113.070 Y81.760 E4.24301
G1 X113.220 Y82.550 E4.26789
G1 X113.260 Y83.080 E4.28433
G1 X113.260 Y106.910 E5.02166
G1 X113.220 Y107.440 E5.03811
G1 X113.070 Y108.230 E5.06299
G1 X112.920 Y108.740 E5.07944
G1 X112.630 Y109.480 E5.10403
G1 X112.380 Y109.950 E5.12050
G1 X111.940 Y110.620 E5.14530
G1 X111.483 Y111.160 E5.16720
G1 X111.420 Y111.230 E5.17010
G1 F1800.000 E4.17010
G92 E0
G1 X105.400 Y105.400 F7800.000
G1 F1800.000 E1.00000
G1 X84.600 Y105.400 F540.000 E1.64359
G1 X84.600 Y84.600 E2.28719
G1 X105.400 Y84.600 E2.93078
G1 X105.400 Y105.306 E3.57147
G1 X105.400 Y105.400 E3.57437
G1 X106.025 Y106.025 F7800.000
G1 X83.975 Y106.025 F540.000 E4.25663
G1 X83.975 Y83.975 E4.93890
G1 X106.025 Y83.975 E5.62116
G1 X106.025 Y105.931 E6.30052
G1 X106.025 Y106.025 E6.30342
G1 X106.650 Y106.650 F7800.000
G1 X83.350 Y106.650 F540.000 E7.02436
G1 X83.350 Y83.350 E7.74529
G1 X106.650 Y83.350 E8.46622
G1 X106.650 Y106.556 E9.18425
G1 X106.650 Y106.650 E9.18715
G1 X106.109 Y106.338 F7800.000
G1 F1800.000 E8.18715
G92 E0
G1 X85.424 Y104.974 F7800.000
G1 F1800.000 E1.00000
G1 X85.026 Y104.576 F1080.000 E1.01750
G1 X85.026 Y103.688 E1.04516
G1 X86.312 Y104.974 E1.10177
G1 X87.201 Y104.974 E1.12941
G1 X85.026 Y102.799 E1.22513
G1 X85.026 Y101.910 E1.25278
G1 X88.090 Y104.974 E1.38760
G1 X88.978 Y104.974 E1.41525
G1 X85.026 Y101.022 E1.58917
G1 X85.026 Y100.133 E1.61682
G1 X89.867 Y104.974 E1.82985
G1 X90.756 Y104.974 E1.85750
G1 X85.026 Y99.244 E2.10962
G1 X85.026 Y98.356 E2.13727
G1 X91.644 Y104.974 E2.42850
G1 X92.533 Y104.974 E2.45615
G1 X85.026 Y97.467 E2.78649
G1 X85.026 Y96.578 E2.81414
G1 X93.422 Y104.974 E3.18358
G1 X94.310 Y104.974 E3.21123
G1 X85.026 Y95.690 E3.61977
G1 X85.026 Y94.801 E3.64742
G1 X95.199 Y104.974 E4.09507
G1 X96.088 Y104.974 E4.12272
G1 X85.026 Y93.912 E4.60947
G1 X85.026 Y93.024 E4.63712
G1 X96.976 Y104.974 E5.16297
G1 X97.865 Y104.974 E5.19062
G1 X85.026 Y92.135 E5.75557
G1 X85.026 Y91.246 E5.78322
G1 X98.754 Y104.974 E6.38728
G1 X99.642 Y104.974 E6.41493
G1 X85.026 Y90.358 E7.05810
G1 X85.026 Y89.469 E7.08575
G1 X100.531 Y104.974 E7.76801
G1 X101.420 Y104.974 E7.79566
G1 X85.026 Y88.580 E8.51703
G1 X85.026 Y87.692 E8.54468
G1 X102.308 Y104.974 E9.30515
G1 X103.197 Y104.974 E9.33280
G1 X85.026 Y86.803 E10.13238
G1 X85.026 Y85.914 E10.16003
G1 X104.086 Y104.974 E10.99871
G1 X104.974 Y104.974 E11.02635
G1 X85.026 Y85.026 E11.90413
G1 X85.914 Y85.026 E11.93177
G1 X104.974 Y104.086 E12.77045
G1 X104.974 Y103.197 E12.79810
G1 X86.803 Y85.026 E13.59768
G1 X87.692 Y85.026 E13.62533
G1 X104.974 Y102.308 E14.38580
G1 X104.974 Y101.420 E14.41345
G1 X88.580 Y85.026 E15.13482
G1 X89.469 Y85.026 E15.16247
G1 X104.974 Y100.531 E15.84473
G1 X104.974 Y99.642 E15.87238
G1 X90.358 Y85.026 E16.51554
G1 X91.246 Y85.026 E16.54319
G1 X104.974 Y98.754 E17.14725
G1 X104.974 Y97.865 E17.17490
G1 X92.135 Y85.026 E17.73986
G1 X93.024 Y85.026 E17.76751
G1 X104.974 Y96.976 E18.29336
G1 X104.974 Y96.088 E18.32101
G1 X93.912 Y85.026 E18.80775
G1 X94.801 Y85.026 E18.83540
G1 X104.974 Y95.199 E19.28305
G1 X104.974 Y94.310 E19.31069
G1 X95.690 Y85.026 E19.71924
G1 X96.578 Y85.026 E19.74689
G1 X104.974 Y93.422 E20.11633
G1 X104.974 Y92.533 E20.14398
G1 X97.467 Y85.026 E20.47431
G1 X98.356 Y85.026 E20.50196
G1 X104.974 Y91.644 E20.79319
G1 X104.974 Y90.756 E20.82084
G1 X99.244 Y85.026 E21.07297
G1 X100.133 Y85.026 E21.10062
G1 X104.974 Y89.867 E21.31364
G1 X104.974 Y88.978 E21.34129
G1 X101.022 Y85.026 E21.51521
G1 X101.910 Y85.026 E21.54286
G1 X104.974 Y88.090 E21.67768
G1 X104.974 Y87.201 E21.70533
G1 X102.799 Y85.026 E21.80105
G1 X103.688 Y85.026 E21.82870
G1 X104.974 Y86.312 E21.88530
G1 X104.974 Y85.424 E21.91296
G1 X104.576 Y85.026 E21.93046
M106 S200
M104 S200 ; set temperature
M140 S60 ; set bed temperature
G1 F1800.000 E20.93046
G92 E0
G1 Z0.600 F7800.000
G1 X83.967 Y83.967
G1 F1800.000 E1.00000
G1 X106.033 Y83.967 F1800.000 E1.30035
G1 X106.033 Y106.033 E1.60069
G1 X83.967 Y106.033 E1.90104
G1 X83.967 Y84.025 E2.20060
G1 X83.967 Y83.967 E2.20138
G1 X83.582 Y83.582 F7800.000
G1 X106.418 Y83.582 F1800.000 E2.51221
G1 X106.418 Y106.418 E2.82303
G1 X83.582 Y106.418 E3.13385
G1 X83.582 Y83.640 E3.44389
G1 X83.582 Y83.582 E3.44468
G1 X83.197 Y83.197 F7800.000
G1 X106.803 Y83.197 F1800.000 E3.76597
G1 X106.803 Y106.803 E4.08727
G1 X83.197 Y106.803 E4.40857
G1 X83.197 Y83.255 E4.72908
G1 X83.197 Y83.197 E4.72987
G1 X83.530 Y83.390 F7800.000
G1 X84.229 Y84.474
G1 X84.474 Y84.229 F3600.000 E4.73460
G1 X85.020 Y84.229 E4.74206
G1 X84.229 Y85.020 E4.75734
G1 X84.229 Y85.566 E4.76480
G1 X85.566 Y84.229 E4.79063
G1 X86.112 Y84.229 E4.79808
G1 X84.229 Y86.112 E4.83446
G1 X84.229 Y86.658 E4.84191
G1 X86.658 Y84.229 E4.88883
G1 X87.205 Y84.229 E4.89629
G1 X84.229 Y87.205 E4.95375
G1 X84.229 Y87.751 E4.96121
G1 X87.751 Y84.229 E5.02922
G1 X88.297 Y84.229 E5.03668
G1 X84.229 Y88.297 E5.11524
G1 X84.229 Y88.843 E5.12269
G1 X88.843 Y84.229 E5.21180
G1 X89.389 Y84.229 E5.21926
G1 X84.229 Y89.389 E5.31891
G1 X84.229 Y89.935 E5.32636
G1 X89.935 Y84.229 E5.43656
G1 X90.481 Y84.229 E5.44402
G1 X84.229 Y90.481 E5.56476
G1 X84.229 Y91.027 E5.57222
G1 X91.027 Y84.229 E5.70351
G1 X91.573 Y84.229 E5.71096
G1 X84.229 Y91.573 E5.85280
G1 X84.229 Y92.119 E5.86026
G1 X92.119 Y84.229 E6.01264
G1 X92.665 Y84.229 E6.02009
G1 X84.229 Y92.665 E6.18302
G1 X84.229 Y93.211 E6.19048
G1 X93.211 Y84.229 E6.36396
G1 X93.757 Y84.229 E6.37141
G1 X84.229 Y93.757 E6.55543
G1 X84.229 Y94.303 E6.56289
G1 X94.303 Y84.229 E6.75746
G1 X94.850 Y84.229 E6.76491
G1 X84.229 Y94.850 E6.97003
G1 X84.229 Y95.396 E6.97749
G1 X95.396 Y84.229 E7.19314
G1 X95.942 Y84.229 E7.20060
G1 X84.229 Y95.942 E7.42681
G1 X84.229 Y96.488 E7.43426
G1 X96.488 Y84.229 E7.67101
G1 X97.034 Y84.229 E7.67847
G1 X84.229 Y97.034 E7.92577
G1 X84.229 Y97.580 E7.93323
G1 X97.580 Y84.229 E8.19107
G1 X98.126 Y84.229 E8.19853
G1 X84.229 Y98.126 E8.46692
G1 X84.229 Y98.672 E8.47438
G1 X98.672 Y84.229 E8.75331
G1 X99.218 Y84.229 E8.76077
G1 X84.229 Y99.218 E9.05026
G1 X84.229 Y99.764 E9.05771
G1 X99.764 Y84.229 E9.35774
G1 X100.310 Y84.229 E9.36520
G1 X84.229 Y100.310 E9.67578
G1 X84.229 Y100.856 E9.68323
G1 X100.856 Y84.229 E10.00436
G1 X101.402 Y84.229 E10.01181
G1 X84.229 Y101.402 E10.34348
G1 X84.229 Y101.948 E10.35094
G1 X101.948 Y84.229 E10.69315
G1 X102.494 Y84.229 E10.70061
G1 X84.229 Y102.494 E11.05337
G1 X84.229 Y103.041 E11.06083
G1 X103.041 Y84.229 E11.42414
G1 X103.587 Y84.229 E11.43159
G1 X84.229 Y103.587 E11.80545
G1 X84.229 Y104.133 E11.81290
G1 X104.133 Y84.229 E12.19730
G1 X104.679 Y84.229 E12.20476
G1 X84.229 Y104.679 E12.59970
G1 X84.229 Y105.225 E12.60716
G1 X105.225 Y84.229 E13.01266
G1 X105.771 Y84.229 E13.02011
G1 X84.229 Y105.771 E13.43615
G1 X84.775 Y105.771 E13.44360
G1 X105.771 Y84.775 E13.84909
G1 X105.771 Y85.321 E13.85655
G1 X85.321 Y105.771 E14.25150
G1 X85.867 Y105.771 E14.25896
G1 X105.771 Y85.867 E14.64336
G1 X105.771 Y86.413 E14.65081
G1 X86.413 Y105.771 E15.02467
G1 X86.959 Y105.771 E15.03212
G1 X105.771 Y86.959 E15.39543
G1 X105.771 Y87.506 E15.40289
G1 X87.506 Y105.771 E15.75565
G1 X88.052 Y105.771 E15.76311
G1 X105.771 Y88.052 E16.10532
G1 X105.771 Y88.598 E16.11278
G1 X88.598 Y105.771 E16.44445
G1 X89.144 Y105.771 E16.45190
G1 X105.771 Y89.144 E16.77303
G1 X105.771 Y89.690 E16.78049
G1 X89.690 Y105.771 E17.09106
G1 X90.236 Y105.771 E17.09852
G1 X105.771 Y90.236 E17.39855
G1 X105.771 Y90.782 E17.40600
G1 X90.782 Y105.771 E17.69549
G1 X91.328 Y105.771 E17.70295
G1 X105.771 Y91.328 E17.98188
G1 X105.771 Y91.874 E17.98934
G1 X91.874 Y105.771 E18.25773
G1 X92.420 Y105.771 E18.26519
G1 X105.771 Y92.420 E18.52303
G1 X105.771 Y92.966 E18.53049
G1 X92.966 Y105.771 E18.77779
G1 X93.512 Y105.771 E18.78525
G1 X105.771 Y93.512 E19.02200
G1 X105.771 Y94.058 E19.02946
G1 X94.058 Y105.771 E19.25566
G1 X94.604 Y105.771 E19.26312
G1 X105.771 Y94.604 E19.47878
G1 X105.771 Y95.150 E19.48623
G1 X95.150 Y105.771 E19.69135
G1 X95.697 Y105.771 E19.69881
G1 X105.771 Y95.697 E19.89337
G1 X105.771 Y96.243 E19.90083
G1 X96.243 Y105.771 E20.08485
G1 X96.789 Y105.771 E20.09231
G1 X105.771 Y96.789 E20.26578
G1 X105.771 Y97.335 E20.27324
G1 X97.335 Y105.771 E20.43617
G1 X97.881 Y105.771 E20.44363
G1 X105.771 Y97.881 E20.59601
G1 X105.771 Y98.427 E20.60346
G1 X98.427 Y105.771 E20.74530
G1 X98.973 Y105.771 E20.75276
G1 X105.771 Y98.973 E20.88405
G1 X105.771 Y99.519 E20.89151
G1 X99.519 Y105.771 E21.01225
G1 X100.065 Y105.771 E21.01970
G1 X105.771 Y100.065 E21.12990
G1 X105.771 Y100.611 E21.13736
G1 X100.611 Y105.771 E21.23701
G1 X101.157 Y105.771 E21.24447
G1 X105.771 Y101.157 E21.33357
G1 X105.771 Y101.703 E21.34103
G1 X101.703 Y105.771 E21.41959
G1 X102.249 Y105.771 E21.42704
G1 X105.771 Y102.249 E21.49505
G1 X105.771 Y102.795 E21.50251
G1 X102.795 Y105.771 E21.55998
G1 X103.341 Y105.771 E21.56743
G1 X105.771 Y103.342 E21.61435
G1 X105.771 Y103.888 E21.62181
G1 X103.888 Y105.771 E21.65818
G1 X104.434 Y105.771 E21.66564
G1 X105.771 Y104.434 E21.69147
G1 X105.771 Y104.980 E21.69892
G1 X104.980 Y105.771 E21.71420
G1 X105.526 Y105.771 E21.72166
G1 X105.771 Y105.526 E21.72639
G1 F1800.000 E20.72639
G92 E0
G1 Z0.850 F7800.000
G1 X106.033 Y83.967
G1 F1800.000 E1.00000
G1 X106.033 Y106.033 F1800.000 E1.30035
G1 X83.967 Y106.033 E1.60069
G1 X83.967 Y83.967 E1.90104
G1 X105.975 Y83.967 E2.20060
G1 X106.033 Y83.967 E2.20138
G1 X106.418 Y83.582 F7800.000
G1 X106.418 Y106.418 F1800.000 E2.51221
G1 X83.582 Y106.418 E2.82303
G1 X83.582 Y83.582 E3.13385
G1 X106.360 Y83.582 E3.44389
G1 X106.418 Y83.582 E3.44468
G1 X106.803 Y83.197 F7800.000
G1 X106.803 Y106.803 F1800.000 E3.76597
G1 X83.197 Y106.803 E4.08727
G1 X83.197 Y83.197 E4.40857
G1 X106.745 Y83.197 E4.72908
G1 X106.803 Y83.197 E4.72987
G1 X106.610 Y83.530 F7800.000
G1 X105.526 Y84.229
G1 X105.771 Y84.474 F3600.000 E4.73460
G1 X105.771 Y85.020 E4.74206
G1 X104.980 Y84.229 E4.75734
G1 X104.434 Y84.229 E4.76480
G1 X105.771 Y85.566 E4.79063
G1 X105.771 Y86.112 E4.79808
G1 X103.888 Y84.229 E4.83446
G1 X103.342 Y84.229 E4.84191
G1 X105.771 Y86.658 E4.88883
G1 X105.771 Y87.205 E4.89629
G1 X102.795 Y84.229 E4.95375
G1 X102.249 Y84.229 E4.96121
G1 X105.771 Y87.751 E5.02922
G1 X105.771 Y88.297 E5.03668
G1 X101.703 Y84.229 E5.11524
G1 X101.157 Y84.229 E5.12269
G1 X105.771 Y88.843 E5.21180
G1 X105.771 Y89.389 E5.21926
G1 X100.611 Y84.229 E5.31891
G1 X100.065 Y84.229 E5.32636
G1 X105.771 Y89.935 E5.43656
G1 X105.771 Y90.481 E5.44402
G1 X99.519 Y84.229 E5.56476
G1 X98.973 Y84.229 E5.57222
G1 X105.771 Y91.027 E5.70351
G1 X105.771 Y91.573 E5.71096
G1 X98.427 Y84.229 E5.85280
G1 X97.881 Y84.229 E5.86026
G1 X105.771 Y92.119 E6.01264
G1 X105.771 Y92.665 E6.02009
G1 X97.335 Y84.229 E6.18302
G1 X96.789 Y84.229 E6.19048
G1 X105.771 Y93.211 E6.36396
G1 X105.771 Y93.757 E6.37141
G1 X96.243 Y84.229 E6.55543
G1 X95.697 Y84.229 E6.56289
G1 X105.771 Y94.303 E6.75746
G1 X105.771 Y94.850 E6.76491
G1 X95.150 Y84.229 E6.97003
G1 X94.604 Y84.229 E6.97749
G1 X105.771 Y95.396 E7.19314
G1 X105.771 Y95.942 E7.20060
G1 X94.058 Y84.229 E7.42681
G1 X93.512 Y84.229 E7.43426
G1 X105.771 Y96.488 E7.67101
G1 X105.771 Y97.034 E7.67847
G1 X92.966 Y84.229 E7.92577
G1 X92.420 Y84.229 E7.93323
G1 X105.771 Y97.580 E8.19107
G1 X105.771 Y98.126 E8.19853
G1 X91.874 Y84.229 E8.46692
G1 X91.328 Y84.229 E8.47438
G1 X105.771 Y98.672 E8.75331
G1 X105.771 Y99.218 E8.76077
G1 X90.782 Y84.229 E9.05026
G1 X90.236 Y84.229 E9.05771
G1 X105.771 Y99.764 E9.35774
G1 X105.771 Y100.310 E9.36520
G1 X89.690 Y84.229 E9.67578
G1 X89.144 Y84.229 E9.68323
G1 X105.771 Y100.856 E10.00436
G1 X105.771 Y101.402 E10.01181
G1 X88.598 Y84.229 E10.34348
G1 X88.052 Y84.229 E10.35094
G1 X105.771 Y101.948 E10.69315
G1 X105.771 Y102.494 E10.70061
G1 X87.506 Y84.229 E11.05337
G1 X86.959 Y84.229 E11.06083
G1 X105.771 Y103.041 E11.42414
G1 X105.771 Y103.587 E11.43159
G1 X86.413 Y84.229 E11.80545
G1 X85.867 Y84.229 E11.81290
G1 X105.771 Y104.133 E12.19730
G1 X105.771 Y104.679 E12.20476
G1 X85.321 Y84.229 E12.59970
G1 X84.775 Y84.229 E12.60716
G1 X105.771 Y105.225 E13.01266
G1 X105.771 Y105.771 E13.02011
G1 X84.229 Y84.229 E13.43615
G1 X84.229 Y84.775 E13.44360
G1 X105.225 Y105.771 E13.84909
G1 X104.679 Y105.771 E13.85655
G1 X84.229 Y85.321 E14.25150
G1 X84.229 Y85.867 E14.25896
G1 X104.133 Y105.771 E14.64336
G1 X103.587 Y105.771 E14.65081
G1 X84.229 Y86.413 E15.02467
G1 X84.229 Y86.959 E15.03212
G1 X103.041 Y105.771 E15.39543
G1 X102.494 Y105.771 E15.40289
G1 X84.229 Y87.506 E15.75565
G1 X84.229 Y88.052 E15.76311
G1 X101.948 Y105.771 E16.10532
G1 X101.402 Y105.771 E16.11278
G1 X84.229 Y88.598 E16.44445
G1 X84.229 Y89.144 E16.45190
G1 X100.856 Y105.771 E16.77303
G1 X100.310 Y105.771 E16.78049
G1 X84.229 Y89.690 E17.09106
G1 X84.229 Y90.236 E17.09852
G1 X99.764 Y105.771 E17.39855
G1 X99.218 Y105.771 E17.40600
G1 X84.229 Y90.782 E17.69549
G1 X84.229 Y91.328 E17.70295
G1 X98.672 Y105.771 E17.98188
G1 X98.126 Y105.771 E17.98934
G1 X84.229 Y91.874 E18.25773
G1 X84.229 Y92.420 E18.26519
G1 X97.580 Y105.771 E18.52303
G1 X97.034 Y105.771 E18.53049
G1 X84.229 Y92.966 E18.77779
G1 X84.229 Y93.512 E18.78525
G1 X96.488 Y105.771 E19.02200
G1 X95.942 Y105.771 E19.02946
G1 X84.229 Y94.058 E19.25566
G1 X84.229 Y94.604 E19.26312
G1 X95.396 Y105.771 E19.47878
G1 X94.850 Y105.771 E19.48623
G1 X84.229 Y95.150 E19.69135
G1 X84.229 Y95.697 E19.69881
G1 X94.303 Y105.771 E19.89337
G1 X93.757 Y105.771 E19.90083
G1 X84.229 Y96.243 E20.08485
G1 X84.229 Y96.789 E20.09231
G1 X93.211 Y105.771 E20.26578
G1 X92.665 Y105.771 E20.27324
G1 X84.229 Y97.335 E20.43617
G1 X84.229 Y97.881 E20.44363
G1 X92.119 Y105.771 E20.59601
G1 X91.573 Y105.771 E20.60346
G1 X84.229 Y98.427 E20.74530
G1 X84.229 Y98.973 E20.75276
G1 X91.027 Y105.771 E20.88405
G1 X90.481 Y105.771 E20.89151
